picto/escape-ladder.svg

<svg class="color-immutable" width="24" height="24" viewBox="0 0 24 24" fill="none" xmlns="http://www.w3.org/2000/svg"><g clip-path="url(#a)"><path d="M0 22.5v-21C0 .675.675 0 1.5 0h21c.825 0 1.5.675 1.5 1.5v21c0 .825-.675 1.5-1.5 1.5h-21C.675 24 0 23.325 0 22.5Z" fill="#237F52"/><path d="M15.375 3a.376.376 0 0 0-.375.375v.938H9v-.938A.376.376 0 0 0 8.625 3a.376.376 0 0 0-.375.375v17.25c0 .206.169.375.375.375A.376.376 0 0 0 9 20.625v-.938h6v.938c0 .206.169.375.375.375a.376.376 0 0 0 .375-.375V3.375A.376.376 0 0 0 15.375 3ZM15 19.312H9v-2.625h6v2.625Zm0-3H9v-2.625h6v2.625Zm0-3H9v-2.625h6v2.625Zm0-3H9V7.688h6v2.624Zm0-3H9V4.688h6v2.624Z" fill="#fff"/></g><defs><clipPath id="a"><path fill="#fff" d="M0 0h24v24H0z"/></clipPath></defs></svg>

<svg class="color-immutable" width="24" height="24" viewBox="0 0 24 24" fill="none" xmlns="http://www.w3.org/2000/svg"><path d="M0 22.5V1.5C0 0.675 0.675 0 1.5 0H22.5C23.325 0 24 0.675 24 1.5V22.5C24 23.325 23.325 24 22.5 24H1.5C0.675 24 0 23.325 0 22.5Z" fill="#237F52"/><path d="M15.375 3C15.169 3 15 3.169 15 3.375V4.313H9V3.375C9 3.169 8.831 3 8.625 3C8.419 3 8.25 3.169 8.25 3.375V20.625C8.25 20.831 8.419 21 8.625 21C8.831 21 9 20.831 9 20.625V19.687H15V20.625C15 20.831 15.169 21 15.375 21C15.581 21 15.75 20.831 15.75 20.625V3.375C15.75 3.169 15.581 3 15.375 3ZM15 19.312H9V16.687H15V19.312ZM15 16.312H9V13.687H15V16.312ZM15 13.312H9V10.687H15V13.312ZM15 10.312H9V7.688H15V10.312ZM15 7.312H9V4.688H15V7.312Z" fill="white"/></svg>
